dist/img/arrow1-1440.svg

<svg width="85" height="147" viewBox="0 0 85 147" fill="none" xmlns="http://www.w3.org/2000/svg">
<path d="M61.3922 145.914C61.4686 146.461 61.974 146.842 62.5209 146.766L71.4344 145.521C71.9814 145.444 72.3629 144.939 72.2865 144.392C72.2101 143.845 71.7047 143.464 71.1577 143.54L63.2347 144.647L62.128 136.724C62.0516 136.177 61.5462 135.795 60.9992 135.871C60.4523 135.948 60.0708 136.453 60.1472 137L61.3922 145.914ZM0.9351 2.61633C45.6303 9.86807 70.3162 32.816 79.1151 60.1638C87.9331 87.5713 80.8708 119.624 61.5845 145.173L63.1807 146.378C82.7852 120.408 90.0713 87.6871 81.0189 59.5513C71.9474 31.3557 46.5443 7.99021 1.25541 0.64215L0.9351 2.61633Z" fill="url(#paint0_linear_70_1467)"/>
<defs>
<linearGradient id="paint0_linear_70_1467" x1="8.84845" y1="55.4003" x2="85.9593" y2="99.9203" gradientUnits="userSpaceOnUse">
<stop stop-color="#800BF5"/>
<stop offset="1" stop-color="#25C6F9"/>
</linearGradient>
</defs>
</svg>

<svg xmlns="http://www.w3.org/2000/svg" width="85" height="147" fill="none">
  <path fill="url(#a)" d="M61.392 145.914a1 1 0 0 0 1.129.852l8.913-1.245a1 1 0 0 0-.276-1.981l-7.923 1.107-1.107-7.923a1.001 1.001 0 0 0-1.98.276l1.244 8.914ZM.935 2.616c44.695 7.252 69.381 30.2 78.18 57.548 8.818 27.407 1.756 59.46-17.53 85.009l1.596 1.205c19.604-25.97 26.89-58.69 17.838-86.827C71.947 31.356 46.544 7.991 1.255.642l-.32 1.974Z"/>
  <defs>
    <linearGradient id="a" x1="8.848" x2="85.959" y1="55.4" y2="99.92" gradientUnits="userSpaceOnUse">
      <stop stop-color="#800BF5"/>
      <stop offset="1" stop-color="#25C6F9"/>
    </linearGradient>
  </defs>
</svg>
